X:1
T:Title
%%score 1 2
L:1/8
Q:1/4=91
M:3/4
K:Bb
V:1 treble nm="Grand Piano, Soprano"
V:2 bass nm="Choir Pad, Bass"
V:1
 [B,D]>[CE] [DF]3 [DF] | [Fd]>[Ec] [Ec][DB] [B,D]2 | [DF]>[FB] [FA]3 [EG] | [DF]>[CE] [B,D]4 | %4
w: By~John~Robson~Sweney,~1878 * * *||||
 [B,D]>[CE] [DF]3 [DF] | [Fd]>[Ec] [Ec][DB] [B,D]2 | [DF]>[FB] [FA]3 [EG] | [EA]>[Ec] [DB]3 [DF] | %8
w: ||||
 [Fd]>[Ec] [Ec]3 [EF] | [Ec]>[DB] [DB]4 | [FA]>[EG] [DF]3 [CE] | [B,D]>[DF] [DB]4 | %12
w: ||||
 [B,D]>[CE] [DF]3 [DF] | [Fd]>[Ec] [Ec][DB] [B,D]2 | [DF]>[FB] [FA]3 [EG] | [EA]>[Ec] [DB]4- | %16
w: ||||
 [DB]4 z2 |] %17
w: |
V:2
 [B,,F,]>[B,,F,] [B,,B,]3 [B,,B,] | [B,,B,]>[B,,F,] [B,,F,]2 [B,,F,]2 | %2
 [B,,B,]>[D,B,] [F,C]3 [F,A,] | F,>[F,,F,] [B,,F,]4 | [B,,F,]>[B,,F,] [B,,B,]3 [B,,B,] | %5
 [B,,B,]>[B,,F,] [B,,F,]2 [B,,F,]2 | [B,,B,]>[D,B,] [F,C]3 [F,C] | [F,C]>[F,A,] [B,,B,]3 [B,,B,] | %8
 [F,B,]>[F,A,] [F,A,]3 [F,A,] | [B,,B,]>[B,,F,] [B,,F,]4 | F,>F, F,3 [F,,F,] | %11
 [B,,F,]>[B,,F,] [B,,F,]4 | [B,,F,]>[B,,F,] [B,,B,]3 [B,,B,] | [B,,B,]>[B,,F,] [B,,F,]2 [B,,F,]2 | %14
 [B,,B,]>[D,B,] [F,C]3 [F,C] | [F,C]>[F,A,] [B,,B,]4- | [B,,B,]4 z2 |] %17

